X:3526
L:1/8
Q:1/4=140
M:2/2
K:A
 E | A2 cA fecA | fecA BdcB | A2 cA fecA | BdcB cA A2 || e2 cA a2 fe | e2 cA GBBd | e2 cA a2 gf | 
 ecdB cA A2 |]

